!!!OTL: Zai wanyang
!!!ARE: Asia, China,ÿAnhui Feidong
!! III, 542
!!!SCT: C2050
!!!YEM: Copyright 1995, estate of Helmut Schaffrath.
**kern
*ICvox
*Ivox
*M2/4
*k[f#c#g#]
*A:
{8.ff#
16aa
8ee
8ee
=1
4ee
8ff#
8aa
=2
8ff#
8ff#
8aa
8bb
=3
8cc#
4ee
8ff#}
=4
{8aa
8ee
8ff#
8ff#
=5
8ff#
8aa
8bb
8ccc#
=6
8eee
8ccc#
8bb
8ccc#
=7
16bb
16ccc#
8bb
8aa
8ff#
=8
2ff#}
=9
{8eee
8ccc#
16ccc#
16bb
8aa
=10
4.bb
16aa
16ff#
=11
8ccc#
16bb
16ccc#
8eee
8ccc#
=12
4.bb
8ff#}
=13
{8aa
8bb
8bb
8bb
=14
8aa
8bb
8aa
8ff#
=15
2ff#}
=16
{8ccc#
8aa
8aa
8aa
=17
8.bb
16ccc#
8aa
8ff#
=18
8ff#
16ee
16ff#
8aa
8ff#
=19
2ee}
==
!!!AGN: Xiaodiao
!!!AMT: simple duple
!!!AIN: vox
!!!EED: Helmut Schaffrath
!!!EEV: 1.0
*-
